Numix-GalliumOS/24/mimetypes/application-software.svg

<?xml version="1.0" encoding="UTF-8" standalone="no"?>
<svg
   xmlns:dc="http://purl.org/dc/elements/1.1/"
   xmlns:cc="http://creativecommons.org/ns#"
   xmlns:rdf="http://www.w3.org/1999/02/22-rdf-syntax-ns#"
   xmlns:svg="http://www.w3.org/2000/svg"
   xmlns="http://www.w3.org/2000/svg"
   xmlns:sodipodi="http://sodipodi.sourceforge.net/DTD/sodipodi-0.dtd"
   xmlns:inkscape="http://www.inkscape.org/namespaces/inkscape"
   width="24"
   height="24"
   viewBox="0 0 24 24"
   id="svg2"
   version="1.1"
   inkscape:version="0.48.5 r10040"
   sodipodi:docname="application-software.svg">
  <metadata
     id="metadata16">
    <rdf:RDF>
      <cc:Work
         rdf:about="">
        <dc:format>image/svg+xml</dc:format>
        <dc:type
           rdf:resource="http://purl.org/dc/dcmitype/StillImage" />
      </cc:Work>
    </rdf:RDF>
  </metadata>
  <defs
     id="defs14" />
  <sodipodi:namedview
     pagecolor="#ffffff"
     bordercolor="#666666"
     borderopacity="1"
     objecttolerance="10"
     gridtolerance="10"
     guidetolerance="10"
     inkscape:pageopacity="0"
     inkscape:pageshadow="2"
     inkscape:window-width="1280"
     inkscape:window-height="970"
     id="namedview12"
     showgrid="true"
     inkscape:zoom="20.85965"
     inkscape:cx="17.037454"
     inkscape:cy="11.677927"
     inkscape:window-x="0"
     inkscape:window-y="0"
     inkscape:window-maximized="1"
     inkscape:current-layer="svg2">
    <inkscape:grid
       type="xygrid"
       id="grid2993"
       empspacing="5"
       visible="true"
       enabled="true"
       snapvisiblegridlinesonly="true" />
  </sodipodi:namedview>
  <path
     style="fill:#c19553"
     d="M 4.9166667,4 C 4.4583333,4 4,4.4583333 4,4.9166667 L 4,19.109375 C 4,19.541667 4.4583333,20 4.8906253,20 L 19.109375,20 C 19.541667,20 20,19.541667 20,19.109375 L 20,4.8906253 C 20,4.4583333 19.541667,4 19.109375,4 z"
     id="path4"
     inkscape:connector-curvature="0" />
  <path
     inkscape:connector-curvature="0"
     id="path8"
     d="M 4.9166667,4 C 4.4583333,4 4,4.4296875 4,4.859375 L 4,9 C 5.7760413,9 18.223959,9 20,9 L 20,4.8349612 C 20,4.4296875 19.541667,4 19.109375,4 z"
     style="fill:#ffffff;fill-opacity:0.19599998" />
  <path
     inkscape:connector-curvature="0"
     id="path10"
     d="M 10,6.0000003 10,14 l 4,0 0,-7.9999997 z"
     style="fill:#ffffff;fill-opacity:0.39200003"
     sodipodi:nodetypes="ccccc" />
</svg>

<svg xmlns="http://www.w3.org/2000/svg" viewBox="0 0 24 24">
 <path d="m 4.917 4 c -0.458 0 -0.917 0.458 -0.917 0.917 l 0 14.193 c 0 0.432 0.458 0.891 0.891 0.891 l 14.219 0 c 0.432 0 0.891 -0.458 0.891 -0.891 l 0 -14.219 c 0 -0.432 -0.458 -0.891 -0.891 -0.891 z" style="fill:#c19553"/>
 <path d="m 4.917 4 c -0.458 0 -0.917 0.43 -0.917 0.859 l 0 4.141 c 1.776 0 14.224 0 16 0 l 0 -4.165 c 0 -0.405 -0.458 -0.835 -0.891 -0.835 z" style="fill:#fff;fill-opacity:0.196"/>
 <path d="m 10 6 0 8 l 4 0 0 -8 z" style="fill:#fff;fill-opacity:0.392"/>
</svg>
